TileServer und Tiles/svg/9/57_39.svg

<?xml version='1.0' encoding='UTF-8' standalone='no'?>
<svg xmlns="http://www.w3.org/2000/svg" width="497pt" viewBox="0 0 497 279" xmlns:xlink="http://www.w3.org/1999/xlink" height="279pt">
 <defs style="stroke:none;" overflow="visible">
  <path id="glyph0-5" d="M 0.40625 0 L 1.921875 -7.140625 L 6.84375 -7.140625 L 5.34375 0 L 4.4375 0 L 5.78125 -6.34375 L 2.640625 -6.34375 L 1.296875 0 Z M 0.40625 0 "/>
  <path id="glyph0-4" d="M 0.40625 0 L 1.90625 -7.140625 L 3.171875 -7.140625 L 3.859375 -1.3125 L 3.90625 -1.3125 L 7.0625 -7.140625 L 8.4375 -7.140625 L 6.953125 0 L 6.0625 0 L 6.953125 -4.234375 C 7.046875 -4.671875 7.132812 -5.066406 7.21875 -5.421875 C 7.300781 -5.773438 7.375 -6.054688 7.4375 -6.265625 L 7.421875 -6.265625 L 3.984375 0 L 3.265625 0 L 2.515625 -6.265625 L 2.46875 -6.265625 C 2.457031 -6.128906 2.429688 -5.945312 2.390625 -5.71875 C 2.359375 -5.5 2.320312 -5.265625 2.28125 -5.015625 C 2.238281 -4.765625 2.195312 -4.523438 2.15625 -4.296875 L 1.234375 0 Z M 0.40625 0 "/>
  <path id="glyph0-3" d="M 3.265625 0.09375 C 2.460938 0.09375 1.835938 -0.144531 1.390625 -0.625 C 0.941406 -1.113281 0.71875 -1.78125 0.71875 -2.625 C 0.71875 -3.050781 0.765625 -3.484375 0.859375 -3.921875 C 0.960938 -4.367188 1.113281 -4.785156 1.3125 -5.171875 C 1.519531 -5.566406 1.78125 -5.921875 2.09375 -6.234375 C 2.40625 -6.546875 2.765625 -6.789062 3.171875 -6.96875 C 3.585938 -7.144531 4.054688 -7.234375 4.578125 -7.234375 C 5.242188 -7.234375 5.820312 -7.101562 6.3125 -6.84375 L 5.953125 -6.09375 C 5.773438 -6.1875 5.570312 -6.269531 5.34375 -6.34375 C 5.125 -6.414062 4.867188 -6.453125 4.578125 -6.453125 C 4.078125 -6.453125 3.644531 -6.335938 3.28125 -6.109375 C 2.914062 -5.890625 2.613281 -5.59375 2.375 -5.21875 C 2.132812 -4.851562 1.957031 -4.445312 1.84375 -4 C 1.726562 -3.550781 1.671875 -3.101562 1.671875 -2.65625 C 1.671875 -2.039062 1.820312 -1.554688 2.125 -1.203125 C 2.4375 -0.859375 2.867188 -0.6875 3.421875 -0.6875 C 3.691406 -0.6875 3.957031 -0.710938 4.21875 -0.765625 C 4.488281 -0.816406 4.75 -0.890625 5 -0.984375 L 5 -0.203125 C 4.738281 -0.109375 4.472656 -0.0351562 4.203125 0.015625 C 3.941406 0.0664062 3.628906 0.09375 3.265625 0.09375 Z M 3.265625 0.09375 "/>
  <path id="glyph0-2" d="M 0.828125 0.09375 C 0.679688 0.09375 0.53125 0.078125 0.375 0.046875 C 0.21875 0.0234375 0.09375 -0.00390625 0 -0.046875 L 0 -0.90625 C 0.113281 -0.851562 0.238281 -0.804688 0.375 -0.765625 C 0.519531 -0.734375 0.664062 -0.71875 0.8125 -0.71875 C 1.164062 -0.71875 1.46875 -0.820312 1.71875 -1.03125 C 1.96875 -1.238281 2.238281 -1.578125 2.53125 -2.046875 L 1.03125 -7.140625 L 1.9375 -7.140625 L 2.796875 -4.015625 C 2.847656 -3.785156 2.898438 -3.554688 2.953125 -3.328125 C 3.015625 -3.097656 3.066406 -2.875 3.109375 -2.65625 C 3.203125 -2.851562 3.296875 -3.046875 3.390625 -3.234375 C 3.484375 -3.429688 3.585938 -3.625 3.703125 -3.8125 L 5.65625 -7.140625 L 6.65625 -7.140625 L 3.375 -1.78125 C 3.09375 -1.320312 2.820312 -0.953125 2.5625 -0.671875 C 2.300781 -0.398438 2.03125 -0.203125 1.75 -0.078125 C 1.476562 0.0351562 1.171875 0.09375 0.828125 0.09375 Z M 0.828125 0.09375 "/>
  <path id="glyph0-1" d="M 0.40625 0 L 1.921875 -7.140625 L 5.546875 -7.140625 L 5.375 -6.34375 L 2.640625 -6.34375 L 1.296875 0 Z M 0.40625 0 "/>
  <path id="glyph0-0" d="M 0.9375 0 L 0.9375 -7.140625 L 5.046875 -7.140625 L 5.046875 0 Z M 1.453125 -0.515625 L 4.546875 -0.515625 L 4.546875 -6.625 L 1.453125 -6.625 Z M 1.453125 -0.515625 "/>
 </defs>
 <image id="image23" width="497" xlink:href="svg/9/57_39.jpg" height="279"/>
 <g>
  <path d="M 0.0664062,91.207031 1.582031,84.066406 h 3.625 L 5.035156,84.863281 H 2.300781 l -1.34375,6.34375 z m 0,0" transform="rotate(  340 23.857 99.735) translate(9.4576271,11.526483)" style="fill:none;stroke:#ffffff;stroke-width:2;stroke-linecap:butt;stroke-linejoin:round;stroke-miterlimit:10;stroke-opacity:0.6"/>
  <path d="m 5.265625,91.300781 c -0.148437,0 -0.296875,-0.01563 -0.453125,-0.04687 -0.15625,-0.02344 -0.28125,-0.05078 -0.375,-0.09375 v -0.859375 c 0.113281,0.05469 0.238281,0.101563 0.375,0.140625 0.144531,0.03125 0.289062,0.04687 0.4375,0.04687 0.351562,0 0.65625,-0.101562 0.90625,-0.3125 0.25,-0.207031 0.519531,-0.546875 0.8125,-1.015625 l -1.5,-5.09375 H 6.375 l 0.859375,3.125 c 0.050781,0.230469 0.101563,0.460938 0.15625,0.6875 0.0625,0.230469 0.113281,0.453125 0.15625,0.671875 0.09375,-0.195312 0.1875,-0.390625 0.28125,-0.578125 0.09375,-0.195312 0.195313,-0.390625 0.3125,-0.578125 l 1.953125,-3.328125 h 1 L 7.8125,89.425781 C 7.53125,89.886719 7.257812,90.253906 7,90.535156 c -0.261719,0.273438 -0.53125,0.46875 -0.8125,0.59375 -0.273438,0.113282 -0.578125,0.171875 -0.921875,0.171875 z m 0,0" transform="rotate(  340 23.857 99.735) translate(9.4576271,11.526483)" style="fill:none;stroke:#ffffff;stroke-width:2;stroke-linecap:butt;stroke-linejoin:round;stroke-miterlimit:10;stroke-opacity:0.6"/>
  <path d="m 13.34375,91.300781 c -0.804688,0 -1.429688,-0.238281 -1.875,-0.71875 -0.449219,-0.488281 -0.671875,-1.15625 -0.671875,-2 0,-0.425781 0.04687,-0.859375 0.140625,-1.296875 0.101562,-0.445312 0.253906,-0.863281 0.453125,-1.25 0.207031,-0.394531 0.46875,-0.75 0.78125,-1.0625 0.3125,-0.3125 0.671875,-0.554687 1.078125,-0.734375 0.414062,-0.175781 0.882812,-0.265625 1.40625,-0.265625 0.664062,0 1.242188,0.132813 1.734375,0.390625 l -0.359375,0.75 c -0.179688,-0.09375 -0.382812,-0.175781 -0.609375,-0.25 -0.21875,-0.07031 -0.476563,-0.109375 -0.765625,-0.109375 -0.5,0 -0.933594,0.117188 -1.296875,0.34375 -0.367187,0.21875 -0.667969,0.515625 -0.90625,0.890625 -0.242187,0.367188 -0.417969,0.773438 -0.53125,1.21875 C 11.804688,87.65625 11.75,88.105469 11.75,88.550781 c 0,0.617188 0.148438,1.101563 0.453125,1.453125 0.3125,0.34375 0.742187,0.515625 1.296875,0.515625 0.269531,0 0.535156,-0.02344 0.796875,-0.07813 0.269531,-0.05078 0.53125,-0.125 0.78125,-0.21875 v 0.78125 c -0.261719,0.09375 -0.527344,0.167969 -0.796875,0.21875 -0.261719,0.05078 -0.574219,0.07813 -0.9375,0.07813 z m 0,0" transform="rotate(  340 23.857 99.735) translate(9.4576271,11.526483)" style="fill:none;stroke:#ffffff;stroke-width:2;stroke-linecap:butt;stroke-linejoin:round;stroke-miterlimit:10;stroke-opacity:0.6"/>
  <path d="m 16.355469,91.207031 1.5,-7.140625 h 1.265625 l 0.6875,5.828125 h 0.04687 l 3.15625,-5.828125 h 1.375 l -1.484375,7.140625 h -0.890625 l 0.890625,-4.234375 c 0.09375,-0.4375 0.179687,-0.832031 0.265625,-1.1875 0.08203,-0.351562 0.15625,-0.632812 0.21875,-0.84375 h -0.01563 l -3.4375,6.265625 h -0.71875 l -0.75,-6.265625 h -0.04687 c -0.01172,0.136719 -0.03906,0.320313 -0.07813,0.546875 -0.03125,0.21875 -0.07031,0.453125 -0.109375,0.703125 -0.04297,0.25 -0.08594,0.492188 -0.125,0.71875 l -0.921875,4.296875 z m 0,0" transform="rotate(  340 23.857 99.735) translate(9.4576271,11.526483)" style="fill:none;stroke:#ffffff;stroke-width:2;stroke-linecap:butt;stroke-linejoin:round;stroke-miterlimit:10;stroke-opacity:0.6"/>
  <path d="m 24.765625,91.207031 1.515625,-7.140625 h 4.921875 l -1.5,7.140625 h -0.90625 l 1.34375,-6.34375 H 27 l -1.34375,6.34375 z m 0,0" transform="rotate(  340 23.857 99.735) translate(9.4576271,11.526483)" style="fill:none;stroke:#ffffff;stroke-width:2;stroke-linecap:butt;stroke-linejoin:round;stroke-miterlimit:10;stroke-opacity:0.6"/>
  <g transform=" rotate(  340 23.857 99.735) " style="fill:#000000;fill-opacity:1">
   <use xlink:href="#glyph0-1" y="102.735" x="9.11697"/>
   <use xlink:href="#glyph0-2" y="102.735" x="13.897"/>
   <use xlink:href="#glyph0-3" y="102.735" x="19.537"/>
   <use xlink:href="#glyph0-4" y="102.735" x="25.407"/>
   <use xlink:href="#glyph0-5" y="102.735" x="33.817"/>
  </g>
 </g>
</svg>

<svg xmlns="http://www.w3.org/2000/svg" xmlns:xlink="http://www.w3.org/1999/xlink" viewBox="0 0 497 279"> <defs overflow="visible" style="stroke:none">  <path id="e" d="M.4 0 2-7.1h5L5.2 0h-.8l1.4-6.3H2.6L1.3 0Zm0 0"/>  <path id="d" d="M.4 0 2-7.1h1.2l.7 5.8 3.2-5.8h1.3L7 0H6l1-4.2a47.9 47.9 0 0 1 .4-2L4 0h-.7l-.8-6.3-.1.6-.1.7-.1.7-1 4.3Zm0 0"/>  <path id="c" d="M3.3 0c-.8 0-1.5 0-2-.5C1-1.1.8-1.8.8-2.6.7-3.1.7-3.5 1-4c-.1-.4 0-.8.3-1.2l.8-1L3-7l1.7-.2c.5 0 1.1.1 1.6.4l-.3.7a4 4 0 0 0-.7-.2l-.7-.2c-.6 0-1 .2-1.3.5-.4 0-.7.4-1 .8A4 4 0 0 0 1.9-4l-.2 1.3c0 .7.1 1.1.3 1.5.4.3 1 .5 1.4.5h.8L5-1v.8l-.8.2a5 5 0 0 1-1 0Zm0 0"/>  <path id="b" d="M.8 0H0v-1l.4.3h.4c.4 0 .7 0 1-.3l.6-1L1-7.1h1l.7 3a35.4 35.4 0 0 0 .4 1.5l.3-.6a6 6 0 0 1 .3-.6l2-3.3h1L3.4-1.8 2.6-.7l-.9.7-.9.1Zm0 0"/>  <path id="a" d="M.4 0 2-7.1h3.5l-.1.8H2.6L1.3 0Zm0 0"/>  <path d="M1 0v-7.1h4V0Zm.4-.5h3.1v-6.1h-3Zm.1 0"/> </defs> <image xlink:href="svg/9/57_39.jpg" width="497" height="279"/> <path d="m0 91.2 1.7-7.1h3.5l-.2.8H2.3L1 91.2zm5.3.1h-.5l-.4-.1v-.9l.4.1h.5c.2.1.5.1.9-.1l.8-1.1L5.5 84h.9l.8 3a35.4 35.4 0 0 0 .3 1.7l.3-.7a6 6 0 0 1 .3-.6l2-3.4h.9l-3.2 5.4c-.3.6-.5.9-.8 1.1-.3.3-.5.5-.8.6l-1 .2zm8 0c-.8 0-1.3-.2-1.8-.7-.5-.6-.7-1.2-.7-2l.1-1.3.5-1.3.8-1 1-.8 1.6-.2c.5 0 1.1 0 1.6.4l-.4.6a4 4 0 0 0-.6 0l-.7-.2c-.5 0-1 0-1.3.2-.4.3-.7.6-1 1a4 4 0 0 0-.4 1.2l-.3 1.4c.1.6.3 1 .6 1.4.2.3.6.5 1.2.5h.8l.8-.4v.9l-.8.2a5 5 0 0 1-1 .1zm3.1-.1 1.5-7.1H19l.8 5.8L23 84h1.4l-1.5 7.2H22l1-4.2a47.9 47.9 0 0 1 .4-2l-3.5 6.1h-.7l-.7-6.1-.3.5v.7l-.2.7-.9 4.3zm8.4 0 1.5-7.1h4.9l-1.5 7.1h-.9l1.3-6.2H27l-1.3 6.2zm0 0" style="fill:none;stroke:#fff;stroke-width:2;stroke-linecap:butt;stroke-linejoin:round;stroke-miterlimit:10;stroke-opacity:.6" transform="rotate(  340 23.857 99.735) translate(9.4576271,11.526483)"/> <g style="fill:#000;fill-opacity:1" transform=" rotate(  340 23.857 99.735) ">  <use xlink:href="#a" x="9.1" y="102.7"/>  <use xlink:href="#b" x="13.9" y="102.7"/>  <use xlink:href="#c" x="19.5" y="102.7"/>  <use xlink:href="#d" x="25.4" y="102.7"/>  <use xlink:href="#e" x="33.8" y="102.7"/> </g></svg>
